R/rng.tech logo.svg

<?xml version="1.0" ?>
<svg xmlns="http://www.w3.org/2000/svg" viewBox="0 0 412 132.1">
	<style type="text/css">
	.st0{fill-rule:evenodd;clip-rule:evenodd;}
</style>
	<path class="st0" d="M194.5,95.7V65.6h4.8l13.4,30.1H244l-18.3-35.3c4.5-2.3,8.3-5.9,10.9-10.2c2.6-4.6,3.9-9.7,3.8-15v-4.4  c0-3.9-0.6-7.8-1.7-11.5c-2.3-7.3-7.9-13.2-15.1-15.8c-4.6-1.6-9.4-2.4-14.3-2.3h-44.4v94.4H194.5z M194.5,23.3h8.2  c3.4,0,5.8,0.6,7.3,1.9c1.5,1.3,2.3,3.5,2.3,6.7v2.3c0,6.1-3,9.1-9.1,9.1h-8.6V23.3z M247.1,1.3v94.4h28.1V49.3l26.2,46.4h25.7V1.3  H299v46.4L272.8,1.3L247.1,1.3L247.1,1.3z M384,40.1v20l0,0.2v13.1c-0.8,0.2-1.5,0.4-2.3,0.5c-0.9,0.1-1.7,0.2-2.6,0.2  c-2.5,0-4.9-0.3-7.3-0.9c-2-0.6-3.7-1.8-5-3.4c-1.5-2-2.5-4.3-3-6.8c-0.7-3.6-1.1-7.4-1-11.1v-7.4c-0.1-3.6,0.3-7.2,1.3-10.7  c0.7-2.5,2-4.7,3.8-6.5c1.9-1.6,4.2-2.7,6.6-3.2c3.2-0.6,6.4-0.9,9.6-0.9c3.9,0,7.7,0.3,11.5,0.9c3.5,0.6,6.6,1.2,9.5,1.9l4.5-21.9  c-4.2-1.2-8.5-2.1-12.9-2.8c-5.6-1-11.3-1.4-17-1.4c-15.8,0-27.7,3.6-35.7,10.7c-8,7.2-11.9,18.4-11.9,33.8v9.3  c-0.1,6.4,0.7,12.7,2.3,18.8c1.4,5.1,4,9.7,7.6,13.5c3.9,3.8,8.6,6.6,13.8,8.2c5.7,1.8,12.7,2.7,21,2.7c6.1,0,12.2-0.5,18.2-1.5  c5.4-0.8,10.7-2.1,15.8-3.8v-52L384,40.1z M0.8,108.5l-0.6,4.8h6.3v18.1h5.9v-18.1h6l0.6-4.8L0.8,108.5L0.8,108.5z M44.3,108.5v23  h15.4l0.6-4.7H50.2v-4.5h8.5l0.6-4.7h-9.1v-4.4h9.5l0.6-4.7L44.3,108.5L44.3,108.5z M98,131.7c0.9-0.1,1.8-0.2,2.7-0.5l0.9-4.5  c-0.9,0.1-1.8,0.3-2.5,0.3s-1.5,0.1-2.2,0.1c-0.8,0-1.7-0.1-2.5-0.2c-0.6-0.1-1.1-0.4-1.5-0.9c-0.4-0.5-0.7-1.1-0.8-1.8  c-0.2-1-0.2-2-0.2-3v-2.1c0-1,0.1-2,0.3-3c0.1-0.7,0.4-1.3,0.9-1.9c0.4-0.5,0.9-0.8,1.5-1c0.7-0.2,1.5-0.3,2.3-0.3  c0.7,0,1.4,0,2.1,0.2c0.6,0.1,1.2,0.2,1.7,0.4l1-4.4c-0.8-0.3-1.6-0.5-2.4-0.6c-1.1-0.2-2.2-0.3-3.3-0.3c-1.7-0.1-3.4,0.2-4.9,0.9  c-1.2,0.5-2.3,1.3-3.1,2.3c-0.8,1-1.4,2.2-1.7,3.4c-0.3,1.4-0.5,2.8-0.5,4.2v2.3c0,1.6,0.2,3.1,0.5,4.6c0.3,1.2,0.9,2.3,1.7,3.3  c0.8,0.9,1.9,1.5,3,1.9c1.4,0.5,3,0.7,4.5,0.6C96.2,131.8,97.1,131.8,98,131.7L98,131.7z M140.2,108.5v8.4h-6.6v-8.4h-6v23h6v-9.4  h6.6v9.4h6v-23H140.2z M173.1,108.5v23h5.5v-12.9l7.8,12.9h5.1v-23H186v12.9l-7.8-12.9H173.1z M226.2,127c-0.5-0.1-0.9-0.4-1.2-0.8  c-0.4-0.5-0.6-1.1-0.8-1.7c-0.2-1-0.3-2-0.3-3v-2.9c0-1,0.1-2,0.3-2.9c0.1-0.6,0.4-1.2,0.8-1.7c0.3-0.4,0.7-0.7,1.2-0.9  c0.5-0.2,1-0.2,1.6-0.2c0.5,0,1.1,0.1,1.6,0.2c0.5,0.1,0.9,0.4,1.2,0.8c0.4,0.5,0.6,1.1,0.7,1.7c0.2,1,0.3,2,0.2,3v2.9  c0,1-0.1,2-0.3,3c-0.1,0.6-0.4,1.2-0.8,1.7c-0.3,0.4-0.7,0.7-1.2,0.8c-0.5,0.1-1,0.2-1.5,0.2C227.2,127.2,226.7,127.1,226.2,127  L226.2,127z M223,108.8c-1.2,0.5-2.2,1.2-3,2.2c-0.8,1-1.3,2.1-1.6,3.4c-0.3,1.4-0.5,2.9-0.5,4.4v2.6c0,1.4,0.1,2.8,0.4,4.1  c0.2,1.2,0.8,2.4,1.5,3.4c0.8,1,1.8,1.8,3,2.3c1.6,0.6,3.2,0.9,4.9,0.9c1.6,0.1,3.3-0.2,4.8-0.8c1.2-0.5,2.2-1.2,3-2.2  c0.8-1,1.3-2.1,1.6-3.4c0.3-1.4,0.5-2.9,0.5-4.4v-2.6c0-1.4-0.1-2.8-0.4-4.2c-0.2-1.2-0.7-2.4-1.5-3.4c-0.8-1-1.8-1.8-3-2.3  c-1.6-0.6-3.2-0.9-4.9-0.8C226.1,107.9,224.5,108.2,223,108.8L223,108.8z M264,108.5v23h14.8l0.6-4.8h-9.4v-18.1H264L264,108.5z   M312,127c-0.5-0.1-0.9-0.4-1.2-0.8c-0.4-0.5-0.6-1.1-0.8-1.7c-0.2-1-0.3-2-0.3-3v-2.9c0-1,0.1-2,0.3-2.9c0.1-0.6,0.4-1.2,0.8-1.7  c0.3-0.4,0.7-0.7,1.2-0.9c0.5-0.2,1-0.2,1.6-0.2c0.5,0,1.1,0.1,1.6,0.2c0.5,0.1,0.9,0.4,1.2,0.8c0.4,0.5,0.6,1.1,0.7,1.7  c0.2,1,0.3,2,0.2,3v2.9c0,1-0.1,2-0.3,3c-0.1,0.6-0.4,1.2-0.8,1.7c-0.3,0.4-0.7,0.7-1.2,0.8c-0.5,0.1-1,0.2-1.4,0.2  C313,127.2,312.5,127.1,312,127L312,127z M308.8,108.8c-1.2,0.5-2.2,1.2-3,2.2c-0.8,1-1.3,2.1-1.6,3.4c-0.3,1.4-0.5,2.9-0.5,4.4v2.6  c0,1.4,0.1,2.8,0.4,4.1c0.2,1.2,0.8,2.4,1.5,3.4c0.8,1,1.8,1.8,3,2.3c1.6,0.6,3.2,0.9,4.9,0.9c1.6,0.1,3.3-0.2,4.8-0.8  c1.2-0.5,2.2-1.2,3-2.2c0.8-1,1.3-2.1,1.6-3.4c0.3-1.4,0.5-2.9,0.4-4.4v-2.6c0-1.4-0.1-2.8-0.4-4.2c-0.2-1.2-0.7-2.4-1.5-3.4  c-0.8-1-1.8-1.8-3-2.3c-1.6-0.6-3.2-0.9-4.9-0.8C311.9,107.9,310.3,108.2,308.8,108.8L308.8,108.8z M363.7,113.2  c0.7,0.1,1.4,0.3,2.1,0.5l1-4.4c-2.1-0.7-4.2-1-6.3-1c-1.8-0.1-3.6,0.2-5.3,0.9c-1.3,0.5-2.5,1.3-3.4,2.3c-0.9,1-1.5,2.2-1.8,3.4  c-0.4,1.4-0.5,2.8-0.5,4.2v2.3c0,1.4,0.1,2.9,0.5,4.3c0.3,1.2,0.8,2.3,1.6,3.3c0.8,0.9,1.8,1.7,3,2.1c1.5,0.5,3.1,0.8,4.7,0.8  c1.5,0,3-0.1,4.5-0.3c1.2-0.2,2.4-0.4,3.5-0.8v-12.1h-7.4l-0.5,4.3h2.7v4.2c-0.4,0-0.7,0.1-0.9,0.1s-0.6,0-0.9,0  c-0.7,0-1.4-0.1-2.2-0.3c-0.6-0.2-1.1-0.5-1.5-0.9c-0.4-0.5-0.7-1.2-0.8-1.9c-0.2-1-0.3-2-0.3-3v-2c0-1,0.1-2,0.3-3  c0.2-0.7,0.6-1.3,1.1-1.9c0.5-0.5,1.1-0.8,1.8-1c0.8-0.2,1.7-0.3,2.6-0.3C362,113,362.9,113,363.7,113.2L363.7,113.2z M397.7,108.5  h-6.6l7.4,14v8.9h6v-8.9l7.5-14h-6.2l-4.1,9.1L397.7,108.5z M0,1.1h155v95H0V1.1z"/>
</svg>

<?xml version="1.0" ?>
<svg xmlns="http://www.w3.org/2000/svg" role="img" viewBox="-8.23 -8.48 428.22 148.72">
	<style>svg {enable-background:new 0 0 412 132.1}</style>
	<path fill-rule="evenodd" d="M 194.5,95.7 L 194.5,65.6 L 199.3,65.6 L 212.7,95.7 L 244.0,95.7 L 225.7,60.4 C 230.2,58.1 234.0,54.5 236.6,50.2 C 239.2,45.6 240.5,40.5 240.4,35.2 L 240.4,30.8 C 240.4,26.9 239.8,23.0 238.7,19.3 C 236.4,12.0 230.8,6.1 223.6,3.5 C 219.0,1.9 214.2,1.1 209.3,1.2 L 164.9,1.2 L 164.9,95.6 L 194.5,95.6 L 194.5,95.7 M 194.5,23.3 L 202.7,23.3 C 206.1,23.3 208.5,23.9 210.0,25.2 C 211.5,26.5 212.3,28.7 212.3,31.9 L 212.3,34.2 C 212.3,40.3 209.3,43.3 203.2,43.3 L 194.6,43.3 L 194.6,23.3 L 194.5,23.3 M 247.1,1.3 L 247.1,95.7 L 275.2,95.7 L 275.2,49.3 L 301.4,95.7 L 327.1,95.7 L 327.1,1.3 L 299.0,1.3 L 299.0,47.7 L 272.8,1.3 L 247.1,1.3 L 247.1,1.3 M 384.0,40.1 L 384.0,73.4 C 383.2,73.6 382.5,73.8 381.7,73.9 C 380.8,74.0 380.0,74.1 379.1,74.1 C 376.6,74.1 374.2,73.8 371.8,73.2 C 369.8,72.6 368.1,71.4 366.8,69.8 C 365.3,67.8 364.3,65.5 363.8,63.0 C 363.1,59.4 362.7,55.6 362.8,51.9 L 362.8,44.5 C 362.7,40.9 363.1,37.3 364.1,33.8 C 364.8,31.3 366.1,29.1 367.9,27.3 C 369.8,25.7 372.1,24.6 374.5,24.1 C 377.7,23.5 380.9,23.2 384.1,23.2 C 388.0,23.2 391.8,23.5 395.6,24.1 C 399.1,24.7 402.2,25.3 405.1,26.0 L 409.6,4.1 C 405.4,2.9 401.1,2.0 396.7,1.3 C 391.1,0.3 385.4,-0.1 379.7,-0.1 C 363.9,-0.1 352.0,3.5 344.0,10.6 C 336.0,17.8 332.1,29.0 332.1,44.4 L 332.1,53.7 C 332.0,60.1 332.8,66.4 334.4,72.5 C 335.8,77.6 338.4,82.2 342.0,86.0 C 345.9,89.8 350.6,92.6 355.8,94.2 C 361.5,96.0 368.5,96.9 376.8,96.9 C 382.9,96.9 389.0,96.4 395.0,95.4 C 400.4,94.6 405.7,93.3 410.8,91.6 L 410.8,39.6 L 384.0,40.1 L 384.0,40.1 M 0.8,108.5 L 0.2,113.3 L 6.5,113.3 L 6.5,131.4 L 12.4,131.4 L 12.4,113.3 L 18.4,113.3 L 19.0,108.5 L 0.8,108.5 L 0.8,108.5 M 44.3,108.5 L 44.3,131.5 L 59.7,131.5 L 60.3,126.8 L 50.2,126.8 L 50.2,122.3 L 58.7,122.3 L 59.3,117.6 L 50.2,117.6 L 50.2,113.2 L 59.7,113.2 L 60.3,108.5 L 44.3,108.5 L 44.3,108.5 M 98.0,131.7 C 98.9,131.6 99.8,131.5 100.7,131.2 L 101.6,126.7 C 100.7,126.8 99.8,127.0 99.1,127.0 C 98.4,127.0 97.6,127.1 96.9,127.1 C 96.1,127.1 95.2,127.0 94.4,126.9 C 93.8,126.8 93.3,126.5 92.9,126.0 C 92.5,125.5 92.2,124.9 92.1,124.2 C 91.9,123.2 91.9,122.2 91.9,121.2 L 91.9,119.1 C 91.9,118.1 92.0,117.1 92.2,116.1 C 92.3,115.4 92.6,114.8 93.1,114.2 C 93.5,113.7 94.0,113.4 94.6,113.2 C 95.3,113.0 96.1,112.9 96.9,112.9 C 97.6,112.9 98.3,112.9 99.0,113.1 C 99.6,113.2 100.2,113.3 100.7,113.5 L 101.7,109.1 C 100.9,108.8 100.1,108.6 99.3,108.5 C 98.2,108.3 97.1,108.2 96.0,108.2 C 94.3,108.1 92.6,108.4 91.1,109.1 C 89.9,109.6 88.8,110.4 88.0,111.4 C 87.2,112.4 86.6,113.6 86.3,114.8 C 86.0,116.2 85.8,117.6 85.8,119.0 L 85.8,121.3 C 85.8,122.9 86.0,124.4 86.3,125.9 C 86.6,127.1 87.2,128.2 88.0,129.2 C 88.8,130.1 89.9,130.7 91.0,131.1 C 92.4,131.6 94.0,131.8 95.5,131.7 C 96.2,131.8 97.1,131.8 98.0,131.7 M 140.2,108.5 L 140.2,116.9 L 133.6,116.9 L 133.6,108.5 L 127.6,108.5 L 127.6,131.5 L 133.6,131.5 L 133.6,122.1 L 140.2,122.1 L 140.2,131.5 L 146.2,131.5 L 146.2,108.5 L 140.2,108.5 L 140.2,108.5 M 173.1,108.5 L 173.1,131.5 L 178.6,131.5 L 178.6,118.6 L 186.4,131.5 L 191.5,131.5 L 191.5,108.5 L 186.0,108.5 L 186.0,121.4 L 178.2,108.5 L 173.1,108.5 L 173.1,108.5 M 226.2,127.0 C 225.7,126.9 225.3,126.6 225.0,126.2 C 224.6,125.7 224.4,125.1 224.2,124.5 C 224.0,123.5 223.9,122.5 223.9,121.5 L 223.9,118.6 C 223.9,117.6 224.0,116.6 224.2,115.7 C 224.3,115.1 224.6,114.5 225.0,114.0 C 225.3,113.6 225.7,113.3 226.2,113.1 C 226.7,112.9 227.2,112.9 227.8,112.9 C 228.3,112.9 228.9,113.0 229.4,113.1 C 229.9,113.2 230.3,113.5 230.6,113.9 C 231.0,114.4 231.2,115.0 231.3,115.6 C 231.5,116.6 231.6,117.6 231.5,118.6 L 231.5,121.5 C 231.5,122.5 231.4,123.5 231.2,124.5 C 231.1,125.1 230.8,125.7 230.4,126.2 C 230.1,126.6 229.7,126.9 229.2,127.0 C 228.7,127.1 228.2,127.2 227.7,127.2 C 227.2,127.2 226.7,127.1 226.2,127.0 L 226.2,127.0 M 223.0,108.8 C 221.8,109.3 220.8,110.0 220.0,111.0 C 219.2,112.0 218.7,113.1 218.4,114.4 C 218.1,115.8 217.9,117.3 217.9,118.8 L 217.9,121.4 C 217.9,122.8 218.0,124.2 218.3,125.5 C 218.5,126.7 219.1,127.9 219.8,128.9 C 220.6,129.9 221.6,130.7 222.8,131.2 C 224.4,131.8 226.0,132.1 227.7,132.1 C 229.3,132.2 231.0,131.9 232.5,131.3 C 233.7,130.8 234.7,130.1 235.5,129.1 C 236.3,128.1 236.8,127.0 237.1,125.7 C 237.4,124.3 237.6,122.8 237.6,121.3 L 237.6,118.7 C 237.6,117.3 237.5,115.9 237.2,114.5 C 237.0,113.3 236.5,112.1 235.7,111.1 C 234.9,110.1 233.9,109.3 232.7,108.8 C 231.1,108.2 229.5,107.9 227.8,108.0 C 226.1,107.9 224.5,108.2 223.0,108.8 M 264.0,108.5 L 264.0,131.5 L 278.8,131.5 L 279.4,126.7 L 270.0,126.7 L 270.0,108.6 L 264.0,108.6 L 264.0,108.5 L 264.0,108.5 M 312.0,127.0 C 311.5,126.9 311.1,126.6 310.8,126.2 C 310.4,125.7 310.2,125.1 310.0,124.5 C 309.8,123.5 309.7,122.5 309.7,121.5 L 309.7,118.6 C 309.7,117.6 309.8,116.6 310.0,115.7 C 310.1,115.1 310.4,114.5 310.8,114.0 C 311.1,113.6 311.5,113.3 312.0,113.1 C 312.5,112.9 313.0,112.9 313.6,112.9 C 314.1,112.9 314.7,113.0 315.2,113.1 C 315.7,113.2 316.1,113.5 316.4,113.9 C 316.8,114.4 317.0,115.0 317.1,115.6 C 317.3,116.6 317.4,117.6 317.3,118.6 L 317.3,121.5 C 317.3,122.5 317.2,123.5 317.0,124.5 C 316.9,125.1 316.6,125.7 316.2,126.2 C 315.9,126.6 315.5,126.9 315.0,127.0 C 314.5,127.1 314.0,127.2 313.6,127.2 C 313.0,127.2 312.5,127.1 312.0,127.0 L 312.0,127.0 M 308.8,108.8 C 307.6,109.3 306.6,110.0 305.8,111.0 C 305.0,112.0 304.5,113.1 304.2,114.4 C 303.9,115.8 303.7,117.3 303.7,118.8 L 303.7,121.4 C 303.7,122.8 303.8,124.2 304.1,125.5 C 304.3,126.7 304.9,127.9 305.6,128.9 C 306.4,129.9 307.4,130.7 308.6,131.2 C 310.2,131.8 311.8,132.1 313.5,132.1 C 315.1,132.2 316.8,131.9 318.3,131.3 C 319.5,130.8 320.5,130.1 321.3,129.1 C 322.1,128.1 322.6,127.0 322.9,125.7 C 323.2,124.3 323.4,122.8 323.3,121.3 L 323.3,118.7 C 323.3,117.3 323.2,115.9 322.9,114.5 C 322.7,113.3 322.2,112.1 321.4,111.1 C 320.6,110.1 319.6,109.3 318.4,108.8 C 316.8,108.2 315.2,107.9 313.5,108.0 C 311.9,107.9 310.3,108.2 308.8,108.8 M 363.7,113.2 C 364.4,113.3 365.1,113.5 365.8,113.7 L 366.8,109.3 C 364.7,108.6 362.6,108.3 360.5,108.3 C 358.7,108.2 356.9,108.5 355.2,109.2 C 353.9,109.7 352.7,110.5 351.8,111.5 C 350.9,112.5 350.3,113.7 350.0,114.9 C 349.6,116.3 349.5,117.7 349.5,119.1 L 349.5,121.4 C 349.5,122.8 349.6,124.3 350.0,125.7 C 350.3,126.9 350.8,128.0 351.6,129.0 C 352.4,129.9 353.4,130.7 354.6,131.1 C 356.1,131.6 357.7,131.9 359.3,131.9 C 360.8,131.9 362.3,131.8 363.8,131.6 C 365.0,131.4 366.2,131.2 367.3,130.8 L 367.3,118.7 L 359.9,118.7 L 359.4,123.0 L 362.1,123.0 L 362.1,127.2 C 361.7,127.2 361.4,127.3 361.2,127.3 L 360.3,127.3 C 359.6,127.3 358.9,127.2 358.1,127.0 C 357.5,126.8 357.0,126.5 356.6,126.1 C 356.2,125.6 355.9,124.9 355.8,124.2 C 355.6,123.2 355.5,122.2 355.5,121.2 L 355.5,119.2 C 355.5,118.2 355.6,117.2 355.8,116.2 C 356.0,115.5 356.4,114.9 356.9,114.3 C 357.4,113.8 358.0,113.5 358.7,113.3 C 359.5,113.1 360.4,113.0 361.3,113.0 C 362.0,113.0 362.9,113.0 363.7,113.2 L 363.7,113.2 M 397.7,108.5 L 391.1,108.5 L 398.5,122.5 L 398.5,131.4 L 404.5,131.4 L 404.5,122.5 L 412.0,108.5 L 405.8,108.5 L 401.7,117.6 L 397.7,108.5 L 397.7,108.5 M 0.0,1.1 L 155.0,1.1 L 155.0,96.1 L 0.0,96.1 L 0.0,1.1 L 0.0,1.1" clip-rule="evenodd"/>
</svg>
